rospo-icon-theme-classic-common/16x16/apps/goa-account-exchange.svg

<svg height="16" width="16" xmlns="http://www.w3.org/2000/svg"><path d="m7 8h9v7c0 1-1 1-1 1h-8z" fill="#ffba08"/><path d="m0 7v8.25c0 .416.3345.75.75.75h7.25v-9z" fill="#459ee9"/><path d="m .75 0c-.4155 0-.75.3345-.75.75v7.25h9v-8z" fill="#eb572a"/><path d="m15.25 0c .416 0 .75.3345.75.75v7.25h-8v-8z" fill="#79a61c"/></svg>

<svg xmlns="http://www.w3.org/2000/svg" width="16" height="16" version="1">
 <path style="fill:#ffba08" d="M 7,8 H 16 V 15 C 16,16 15,16 15,16 H 7 Z"/>
 <path style="fill:#459ee9" d="M 0,7 V 15.25 C 0,15.666 0.3345,16 0.75,16 H 8 V 7 Z"/>
 <path style="fill:#eb572a" d="M 0.75,0 C 0.3345,0 0,0.3345 0,0.75 V 8 H 9 V 0 Z"/>
 <path style="fill:#79a61c" d="M 15.25,0 C 15.666,0 16,0.3345 16,0.75 V 8 H 8 V 0 Z"/>
</svg>
